X:1
T:(unknown title)
M:4/4
L:1/4
K:G
 E| E G G/2 B3/2| G F E z/2 D/2| E3/2 A/2 A3/2 B/2| A2 z G| G G/2G/2 F E/2D/2|\
 F G E/2 E E/2| D E FG/2-F/2| E2 z||

